icons/svg/subway/subway_madrid.svg

<?xml version="1.0" encoding="UTF-8" standalone="no"?>
<svg
   xmlns:dc="http://purl.org/dc/elements/1.1/"
   xmlns:cc="http://creativecommons.org/ns#"
   xmlns:rdf="http://www.w3.org/1999/02/22-rdf-syntax-ns#"
   xmlns:svg="http://www.w3.org/2000/svg"
   xmlns="http://www.w3.org/2000/svg"
   xmlns:sodipodi="http://sodipodi.sourceforge.net/DTD/sodipodi-0.dtd"
   xmlns:inkscape="http://www.inkscape.org/namespaces/inkscape"
   width="16"
   height="16"
   id="svg2"
   version="1.1"
   inkscape:version="0.91 r"
   sodipodi:docname="subway_madrid.svg">
  <defs
     id="defs13" />
  <sodipodi:namedview
     pagecolor="#ffffff"
     bordercolor="#666666"
     borderopacity="1"
     objecttolerance="10"
     gridtolerance="10"
     guidetolerance="10"
     inkscape:pageopacity="0"
     inkscape:pageshadow="2"
     inkscape:window-width="1920"
     inkscape:window-height="1004"
     id="namedview11"
     showgrid="true"
     inkscape:zoom="45.254834"
     inkscape:cx="9.9718137"
     inkscape:cy="8.3163583"
     inkscape:window-x="1680"
     inkscape:window-y="0"
     inkscape:window-maximized="1"
     inkscape:current-layer="svg2"
     showguides="false">
    <sodipodi:guide
       position="0,0"
       orientation="0,580"
       id="guide2989" />
    <sodipodi:guide
       position="580,0"
       orientation="-580,0"
       id="guide2991" />
    <sodipodi:guide
       position="580,580"
       orientation="0,-580"
       id="guide2993" />
    <sodipodi:guide
       position="0,580"
       orientation="580,0"
       id="guide2995" />
    <sodipodi:guide
       position="0,0"
       orientation="0,580"
       id="guide2997" />
    <sodipodi:guide
       position="580,0"
       orientation="-580,0"
       id="guide2999" />
    <sodipodi:guide
       position="580,580"
       orientation="0,-580"
       id="guide3001" />
    <sodipodi:guide
       position="0,580"
       orientation="580,0"
       id="guide3003" />
    <inkscape:grid
       type="xygrid"
       id="grid3013"
       empspacing="5"
       visible="true"
       enabled="true"
       snapvisiblegridlinesonly="true" />
  </sodipodi:namedview>
  <metadata
     id="metadata2975">image/svg+xmlen<rdf:RDF>
  <cc:Work
     rdf:about="">
    <dc:format>image/svg+xml</dc:format>
    <dc:type
       rdf:resource="http://purl.org/dc/dcmitype/StillImage" />
    <dc:title />
  </cc:Work>
</rdf:RDF>
</metadata>
  <path
     transform="matrix(0.81196967,0,0,0.68044485,1.5041235,2.5784211)"
     style="color:#000000;font-style:normal;font-variant:normal;font-weight:normal;font-stretch:normal;font-size:medium;line-height:normal;font-family:sans-serif;text-indent:0;text-align:start;text-decoration:none;text-decoration-line:none;text-decoration-style:solid;text-decoration-color:#000000;letter-spacing:normal;word-spacing:normal;text-transform:none;direction:ltr;block-progression:tb;writing-mode:lr-tb;baseline-shift:baseline;text-anchor:start;white-space:normal;clip-rule:nonzero;display:inline;overflow:visible;visibility:visible;opacity:1;isolation:auto;mix-blend-mode:normal;color-interpolation:sRGB;color-interpolation-filters:linearRGB;solid-color:#000000;solid-opacity:1;fill:#fefefe;fill-opacity:1;fill-rule:nonzero;stroke:none;stroke-width:1.85258031;stroke-linecap:round;stroke-linejoin:miter;stroke-miterlimit:4;stroke-dasharray:none;stroke-dashoffset:0;stroke-opacity:1;color-rendering:auto;image-rendering:auto;shape-rendering:auto;text-rendering:auto;enable-background:accumulate"
     d="M 7.9628906,1.5449219 C 7.7969497,1.5528607 7.6332799,1.6130955 7.5019531,1.7148438 L 0.08398437,7.4257812 c -0.19711893,0.1516141 -0.31640625,0.3978025 -0.31640625,0.6464844 10e-9,0.2486819 0.11928732,0.4929172 0.31640625,0.6445313 l 0.0019531,0 0.73242188,0.5625 6.68359375,5.1445311 c 0.2825249,0.217472 0.7135689,0.217472 0.9960938,0 L 15.916016,8.7148438 c 0.196212,-0.1516901 0.316406,-0.3965213 0.316406,-0.6445313 0,-0.24801 -0.120194,-0.4928412 -0.316406,-0.6445313 L 8.4980469,1.7148438 C 8.3472287,1.5980786 8.1534496,1.5367051 7.9628906,1.5449219 Z"
     id="path4145"
     inkscape:connector-curvature="0"
     sodipodi:nodetypes="cccscccsccsccc" />
  <rect
     width="5.7498822"
     height="5.7498822"
     x="-5.5589166"
     y="9.3286867"
     transform="matrix(0.84035431,-0.54203748,0.84035431,0.54203748,0,0)"
     id="rect3223"
     style="fill:#fefefe;fill-opacity:0;fill-rule:nonzero;stroke:#ed1c23;stroke-width:1.4184891;stroke-linecap:round;stroke-linejoin:miter;stroke-miterlimit:4;stroke-dasharray:none;stroke-opacity:1" />
  <rect
     width="6.1774244"
     height="2.5564179"
     x="4.8800168"
     y="6.7858467"
     id="rect3225"
     style="fill:#0c4da2;fill-opacity:1;fill-rule:nonzero;stroke:none" />
  <path
     inkscape:connector-curvature="0"
     d="m 6.9200098,8.7204254 -0.2574791,0 0,-1.1340052 -0.3877573,1.1340052 -0.1323303,0 -0.3898087,-1.1340052 0,1.1340052 -0.2218729,0 0,-1.2953284 0.4106225,0 0.293383,0.834135 0.2882526,-0.834135 0.3969902,0 0,1.2953284 z M 7.7877526,8.4148612 7.99907,8.4414322 c -0.027355,0.086671 -0.080695,0.1581595 -0.1600271,0.2144645 -0.079327,0.056305 -0.178834,0.084457 -0.2985118,0.084457 -0.1436143,0 -0.2591889,-0.044601 -0.3467246,-0.1338033 -0.087536,-0.089202 -0.1313039,-0.2100358 -0.1313039,-0.362502 0,-0.1448736 0.04411,-0.2647584 0.1323295,-0.3596549 0.08822,-0.094895 0.2078977,-0.1423429 0.359035,-0.1423442 0.1477167,1.3e-6 0.2619227,0.046817 0.3426214,0.1404459 0.080695,0.093631 0.1210447,0.2138329 0.1210463,0.3606042 l -0.001,0.024674 -0.7108892,0 c 0,0.065162 0.00668,0.1173548 0.020003,0.1565782 0.013335,0.039224 0.039839,0.073386 0.079502,0.1024873 0.039664,0.029102 0.089246,0.043652 0.1487431,0.043652 0.1155746,0 0.1935362,-0.051876 0.2338855,-0.1556288 l 0,0 z M 7.7733901,8.1282756 c -6.804e-4,-0.068957 -0.023081,-0.1252622 -0.067191,-0.1689145 -0.04411,-0.043651 -0.098649,-0.065478 -0.1636171,-0.065478 -0.06428,8e-7 -0.1179696,0.020403 -0.1610527,0.061208 -0.043084,0.040806 -0.068387,0.098534 -0.075914,0.1731847 l 0.467771,0 z m 0.7775668,0.6130269 c -0.06292,0 -0.1169431,-0.011545 -0.1620783,-0.034637 -0.045138,-0.023091 -0.078133,-0.054723 -0.098992,-0.094896 -0.020854,-0.040173 -0.031285,-0.1020125 -0.031285,-0.1855211 l 0,-0.4963051 -0.1292527,0 0,-0.167966 0.1425888,0 0,-0.2657082 0.2133686,0 0,0.2657082 0.2082399,0 0,0.167966 -0.2082399,0 0,0.4678364 c 0,0.060101 0.0118,0.101064 0.035391,0.1228901 0.023591,0.021826 0.1231117,0.032739 0.1887645,0.032739 l 0,0.1878934 -0.1585026,0 z m 0.5929205,-0.020877 -0.2338855,0 0,-0.9584481 0.2113175,0 0,0.2286991 c 0.030092,-0.089201 0.071466,-0.1543627 0.1241231,-0.1954854 0.052657,-0.04112 0.1066839,-0.061681 0.162079,-0.061682 0.00751,1e-6 0.017773,3.167e-4 0.030776,9.458e-4 l 0,0.2324948 c -0.1189949,7e-7 -0.1978118,0.035112 -0.2364504,0.1053344 -0.038637,0.070224 -0.057955,0.1382318 -0.057955,0.204026 l 0,0.4441124 z m 0.8688636,0.019928 c -0.1531882,0 -0.2701308,-0.050928 -0.3508289,-0.1527823 -0.080695,-0.1018547 -0.121045,-0.2185764 -0.121045,-0.3501655 0,-0.1417107 0.044624,-0.2596975 0.1338687,-0.3539615 0.089246,-0.094262 0.2070423,-0.1413938 0.3533922,-0.1413951 0.138826,1.3e-6 0.252863,0.045867 0.342109,0.1375991 0.08924,0.091733 0.133867,0.2109858 0.133868,0.3577575 -10e-7,0.1512009 -0.04634,0.2728253 -0.138997,0.3648744 -0.09266,0.092049 -0.210122,0.1380734 -0.352367,0.1380734 l 0,0 z m 0.0082,-0.1784044 c 0.157292,2e-7 0.235937,-0.1084972 0.235937,-0.3254925 0,-0.098058 -0.01881,-0.1753984 -0.05641,-0.2320206 -0.03761,-0.05662 -0.0954,-0.084931 -0.173362,-0.084932 -0.080699,1.1e-6 -0.1405377,0.029261 -0.1795176,0.087779 -0.038983,0.05852 -0.058478,0.1361761 -0.058478,0.2329695 -6e-7,0.1043855 0.020686,0.1840981 0.062063,0.2391373 0.041378,0.05504 0.097965,0.082559 0.1697727,0.082559 l 0,0 z"
     id="text3210"
     style="font-style:normal;font-variant:normal;font-weight:normal;font-stretch:normal;font-size:64.85678864px;line-height:100%;font-family:'Franklin Gothic Medium';-inkscape-font-specification:'Franklin Gothic Medium,';text-align:start;writing-mode:lr-tb;text-anchor:start;fill:#fefefe;fill-opacity:1;stroke:none" />
</svg>

<svg width="16" height="16" viewBox="0 0 16 16" fill="none" xmlns="http://www.w3.org/2000/svg">
<path d="M7.96977 3.62965C7.83504 3.63505 7.70214 3.67604 7.59551 3.74527L1.57234 7.63125C1.41229 7.73441 1.31543 7.90193 1.31543 8.07114C1.31543 8.24036 1.41229 8.40655 1.57234 8.50971H1.57393L2.16863 8.89246L7.59551 12.393C7.82491 12.541 8.1749 12.541 8.40431 12.393L14.4275 8.50838C14.5868 8.40517 14.6844 8.23857 14.6844 8.06982C14.6844 7.90106 14.5868 7.73446 14.4275 7.63125L8.40431 3.74527C8.28185 3.66582 8.1245 3.62406 7.96977 3.62965Z" fill="#FEFEFE"/>
<path d="M7.99991 4.95299L3.16797 8.06964L7.99991 11.1863L12.8318 8.06964L7.99991 4.95299Z" stroke="#ED1C23" stroke-width="1.41849" stroke-linecap="round"/>
<path d="M11.0574 6.78586H4.88V9.34228H11.0574V6.78586Z" fill="#0C4DA2"/>
<path d="M6.92001 8.72044H6.66253V7.58643L6.27477 8.72044H6.14244L5.75263 7.58643V8.72044H5.53076V7.42511H5.94138L6.23477 8.25924L6.52302 7.42511H6.92001V8.72044V8.72044ZM7.78775 8.41487L7.99907 8.44144C7.97172 8.52812 7.91837 8.59961 7.83904 8.65591C7.75972 8.71222 7.66021 8.74037 7.54053 8.74037C7.39692 8.74037 7.28134 8.69577 7.19381 8.60656C7.10627 8.51736 7.0625 8.39653 7.0625 8.24406C7.0625 8.09919 7.10661 7.9793 7.19483 7.88441C7.28305 7.78951 7.40273 7.74206 7.55387 7.74206C7.70158 7.74206 7.81579 7.78888 7.89649 7.88251C7.97718 7.97614 8.01753 8.09634 8.01754 8.24311L8.01653 8.26779H7.30565C7.30565 8.33295 7.31233 8.38514 7.32565 8.42436C7.33898 8.46359 7.36549 8.49775 7.40515 8.52685C7.44481 8.55595 7.4944 8.5705 7.55389 8.5705C7.66947 8.5705 7.74743 8.51863 7.78778 8.41487L7.78775 8.41487ZM7.77339 8.12829C7.77271 8.05933 7.75031 8.00303 7.7062 7.95937C7.66209 7.91572 7.60755 7.8939 7.54258 7.8939C7.4783 7.8939 7.42461 7.9143 7.38153 7.9551C7.33845 7.99591 7.31314 8.05364 7.30562 8.12829H7.77339H7.77339ZM8.55096 8.74132C8.48804 8.74132 8.43401 8.72977 8.38888 8.70668C8.34374 8.68359 8.31075 8.65196 8.28989 8.61178C8.26903 8.57161 8.2586 8.50977 8.2586 8.42626V7.92996H8.12935V7.76199H8.27194V7.49628H8.48531V7.76199H8.69355V7.92996H8.48531V8.39779C8.48531 8.45789 8.49711 8.49886 8.5207 8.52068C8.54429 8.54251 8.64381 8.55342 8.70946 8.55342V8.74132H8.55096H8.55096ZM9.14388 8.72044H8.90999V7.76199H9.12131V7.99069C9.1514 7.90149 9.19278 7.83633 9.24543 7.7952C9.29809 7.75408 9.35212 7.73352 9.40751 7.73352C9.41502 7.73352 9.42528 7.73384 9.43829 7.73447V7.96696C9.31929 7.96696 9.24048 8.00207 9.20184 8.0723C9.1632 8.14252 9.14388 8.21053 9.14388 8.27632V8.72044L9.14388 8.72044ZM10.0127 8.74037C9.85955 8.74037 9.74261 8.68944 9.66191 8.58758C9.58122 8.48573 9.54087 8.36901 9.54087 8.23742C9.54087 8.09571 9.58549 7.97772 9.67474 7.88346C9.76398 7.7892 9.88178 7.74206 10.0281 7.74206C10.167 7.74206 10.281 7.78793 10.3702 7.87966C10.4595 7.97139 10.5041 8.09065 10.5041 8.23742C10.5041 8.38862 10.4578 8.51024 10.3651 8.60229C10.2724 8.69434 10.155 8.74037 10.0127 8.74037V8.74037ZM10.0209 8.56196C10.1782 8.56196 10.2569 8.45347 10.2569 8.23647C10.2569 8.13841 10.2381 8.06107 10.2005 8.00445C10.1629 7.94783 10.1051 7.91952 10.0271 7.91952C9.94641 7.91952 9.88657 7.94878 9.84759 8.0073C9.80861 8.06582 9.78911 8.14347 9.78911 8.24027C9.78911 8.34465 9.8098 8.42436 9.85117 8.4794C9.89255 8.53444 9.94914 8.56196 10.0209 8.56196H10.0209Z" fill="#FEFEFE"/>
</svg>
